X: 1
T: Button Pusher, The
M: 6/8
L: 1/8
R: jig
K: Dmaj
|:A2A|D2 DD2 E|F2 FF2 D|EEE EDC|D4 AA|
A2 GF2 G|(A3A2) A|ABA GFE|F3 D2D|
B2 BBAG|B2B3 B|A2A GFE|F3 F2E|
DDD D2E|F2F FED|EEE EDC|D3:|
